X:82
T:Hanter dro
R:hanter dro
C:trad
A:Bretagne
O:France
M:2/4
L:1/16
Q:1/4=90
K:G
B2 EG B2 G2|c4|B2 EG B2 G2|A2 e2|
B2 EG B2 G2|c3 B|AB AG F2 D2|E4:|
|:e2 ed c2 c2|de dc|1BA GG A2 GA|B4:|2d4 cABc|ABcA||
